icons/Yaru-remix-dark/scalable/apps/camera-app-symbolic.svg

<?xml version="1.0" encoding="UTF-8" standalone="no"?>
<svg
   xmlns:osb="http://www.openswatchbook.org/uri/2009/osb"
   xmlns:dc="http://purl.org/dc/elements/1.1/"
   xmlns:cc="http://creativecommons.org/ns#"
   xmlns:rdf="http://www.w3.org/1999/02/22-rdf-syntax-ns#"
   xmlns:svg="http://www.w3.org/2000/svg"
   xmlns="http://www.w3.org/2000/svg"
   xmlns:sodipodi="http://sodipodi.sourceforge.net/DTD/sodipodi-0.dtd"
   xmlns:inkscape="http://www.inkscape.org/namespaces/inkscape"
   height="16"
   id="svg7384"
   version="1.1"
   width="16"
   sodipodi:docname="camera-app-symbolic.svg"
   inkscape:version="0.92.4 (5da689c313, 2019-01-14)">
  <sodipodi:namedview
     pagecolor="#ffffff"
     bordercolor="#666666"
     borderopacity="1"
     objecttolerance="10"
     gridtolerance="10"
     guidetolerance="10"
     inkscape:pageopacity="0"
     inkscape:pageshadow="2"
     inkscape:window-width="785"
     inkscape:window-height="480"
     id="namedview9511"
     showgrid="false"
     inkscape:zoom="5.2149125"
     inkscape:cx="8"
     inkscape:cy="8"
     inkscape:window-x="70"
     inkscape:window-y="27"
     inkscape:window-maximized="0"
     inkscape:current-layer="svg7384" />
  <metadata
     id="metadata20854">
    <rdf:RDF>
      <cc:Work
         rdf:about="">
        <dc:title />
        <dc:format>image/svg+xml</dc:format>
        <dc:type
           rdf:resource="http://purl.org/dc/dcmitype/StillImage" />
      </cc:Work>
    </rdf:RDF>
  </metadata>
  <defs
     id="defs7386">
    <linearGradient
       id="linearGradient5606"
       osb:paint="solid">
      <stop
         id="stop5608"
         offset="0"
         style="stop-color:#000000;stop-opacity:1;" />
    </linearGradient>
    <linearGradient
       id="linearGradient4526"
       osb:paint="solid">
      <stop
         id="stop4528"
         offset="0"
         style="stop-color:#ffffff;stop-opacity:1;" />
    </linearGradient>
    <linearGradient
       id="linearGradient3600-4"
       osb:paint="gradient">
      <stop
         id="stop3602-7"
         offset="0"
         style="stop-color:#f4f4f4;stop-opacity:1" />
      <stop
         id="stop3604-6"
         offset="1"
         style="stop-color:#dbdbdb;stop-opacity:1" />
    </linearGradient>
  </defs>
  <g
     id="layer9"
     label="status"
     style="display:inline"
     transform="translate(-853.00024,147.00006)" />
  <g
     id="layer2"
     style="display:inline"
     transform="translate(-612.00004,-219.99994)" />
  <g
     id="layer4"
     style="display:inline"
     transform="translate(-612.00004,-219.99994)" />
  <g
     id="g1812"
     style="display:inline"
     transform="translate(-612.00004,-219.99994)" />
  <g
     id="g6217"
     style="display:inline"
     transform="translate(-612.00004,-219.99994)" />
  <g
     id="layer3"
     style="display:inline"
     transform="translate(-612.00004,-219.99994)" />
  <g
     id="layer1"
     style="display:inline"
     transform="translate(-612.00004,-219.99994)" />
  <path
     inkscape:connector-curvature="0"
     style="color:#000000;font-style:normal;font-variant:normal;font-weight:normal;font-stretch:normal;font-size:medium;line-height:normal;font-family:sans-serif;font-variant-ligatures:normal;font-variant-position:normal;font-variant-caps:normal;font-variant-numeric:normal;font-variant-alternates:normal;font-feature-settings:normal;text-indent:0;text-align:start;text-decoration:none;text-decoration-line:none;text-decoration-style:solid;text-decoration-color:#000000;letter-spacing:normal;word-spacing:normal;text-transform:none;writing-mode:lr-tb;direction:ltr;text-orientation:mixed;dominant-baseline:auto;baseline-shift:baseline;text-anchor:start;white-space:normal;shape-padding:0;clip-rule:nonzero;display:inline;overflow:visible;visibility:visible;opacity:1;isolation:auto;mix-blend-mode:normal;color-interpolation:sRGB;color-interpolation-filters:linearRGB;solid-color:#000000;solid-opacity:1;vector-effect:none;fill:#808080;fill-opacity:1;fill-rule:nonzero;stroke:none;stroke-width:1.00000012;stroke-linecap:butt;stroke-linejoin:miter;stroke-miterlimit:4;stroke-dasharray:none;stroke-dashoffset:0;stroke-opacity:1;marker:none;color-rendering:auto;image-rendering:auto;shape-rendering:auto;text-rendering:auto;enable-background:accumulate"
     d="m 3.00003,1.00006 v 1 H 3.99417 C 2.73597,2.01456 1.81528,1.96946 1.06253,2.38483 0.68616,2.59249 0.3893,2.94421 0.22464,3.38287 0.05997,3.82154 3e-5,4.34245 3e-5,5.00006 v 6 c 0,0.65761 0.0599,1.17853 0.22461,1.61719 0.16467,0.43866 0.46152,0.79039 0.83789,0.99804 0.75275,0.41532 1.67345,0.3702 2.93164,0.38477 h 0.004 8.0039 0.004 c 1.25819,-0.0145 2.17889,0.0306 2.93164,-0.38477 0.37637,-0.20766 0.67322,-0.55938 0.83789,-0.99804 0.16431,-0.43867 0.22443,-0.95958 0.22443,-1.61719 v -6 c 0,-0.65761 -0.0599,-1.17852 -0.22461,-1.61719 C 15.61076,2.94421 15.3139,2.59249 14.93753,2.38483 14.18478,1.96949 13.26409,2.01458 12.00589,2.00006 h -0.004 -7.00186 v -1 z m 1,2 h 8 c 1.25852,0.0147 2.08717,0.0598 2.45312,0.26172 0.18341,0.1012 0.28916,0.21274 0.38672,0.47266 0.09743,0.25991 0.16016,0.67323 0.16016,1.26562 v 6 c 0,0.59239 -0.0626,1.00573 -0.16016,1.26562 -0.0976,0.25991 -0.20331,0.37147 -0.38672,0.47266 -0.36594,0.20191 -1.1946,0.24701 -2.45312,0.26172 H 4.00589 4.00003 C 2.7415,12.98536 1.91091,12.94026 1.54495,12.73834 1.36154,12.63715 1.25775,12.5256 1.16019,12.26568 1.06262,12.00578 1.00003,11.59245 1.00003,11.00006 v -6 c 0,-0.59239 0.0626,-1.00572 0.16016,-1.26562 C 1.25779,3.47453 1.36154,3.36297 1.54495,3.26178 1.91091,3.05987 2.7415,3.01477 4.00003,3.00006 Z m 4,1 a 4,4 0 0 0 -4,4 4,4 0 0 0 4,4 4,4 0 0 0 4,-4 4,4 0 0 0 -4,-4 z m 5.5,0 a 0.5,0.5 0 0 0 -0.5,0.5 0.5,0.5 0 0 0 0.5,0.5 0.5,0.5 0 0 0 0.5,-0.5 0.5,0.5 0 0 0 -0.5,-0.5 z m -5.5,1 a 3,3 0 0 1 3,3 3,3 0 0 1 -3,3 3,3 0 0 1 -3,-3 3,3 0 0 1 3,-3 z m -0.084,1.00391 a 2,2 0 0 0 -1.916,1.99609 2,2 0 0 0 2,2 2,2 0 0 0 2,-2 2,2 0 0 0 -1.90039,-1.99414 1,1 0 0 1 0.90039,0.99414 1,1 0 0 1 -1,1 1,1 0 0 1 -1,-1 1,1 0 0 1 0.91602,-0.99609 z"
     id="path8678-2" />
</svg>

<svg xmlns="http://www.w3.org/2000/svg" height="16" width="16">
    <path style="line-height:normal;font-variant-ligatures:normal;font-variant-position:normal;font-variant-caps:normal;font-variant-numeric:normal;font-variant-alternates:normal;font-feature-settings:normal;text-indent:0;text-align:start;text-decoration-line:none;text-decoration-style:solid;text-decoration-color:#000;text-transform:none;text-orientation:mixed;white-space:normal;shape-padding:0;isolation:auto;mix-blend-mode:normal;solid-color:#000;solid-opacity:1;marker:none" d="M3 1v1h.994c-1.258.015-2.179-.03-2.931.385a1.88 1.88 0 00-.838.998C.06 3.822 0 4.343 0 5v6c0 .658.06 1.179.225 1.617.164.439.461.79.838.998.752.416 1.673.37 2.931.385H12.006c1.258-.014 2.179.03 2.932-.385a1.88 1.88 0 00.838-.998c.164-.438.224-.96.224-1.617V5c0-.658-.06-1.178-.225-1.617a1.88 1.88 0 00-.837-.998c-.753-.416-1.674-.37-2.932-.385H5V1zm1 2h8c1.259.015 2.087.06 2.453.262.184.101.29.213.387.472.097.26.16.674.16 1.266v6c0 .592-.063 1.006-.16 1.266-.098.26-.203.371-.387.472-.366.202-1.194.247-2.453.262H4c-1.259-.015-2.09-.06-2.455-.262-.183-.1-.287-.212-.385-.472C1.063 12.006 1 11.592 1 11V5c0-.592.063-1.006.16-1.266.098-.26.202-.371.385-.472C1.911 3.06 2.74 3.015 4 3zm4 1a4 4 0 00-4 4 4 4 0 004 4 4 4 0 004-4 4 4 0 00-4-4zm5.5 0a.5.5 0 00-.5.5.5.5 0 00.5.5.5.5 0 00.5-.5.5.5 0 00-.5-.5zM8 5a3 3 0 013 3 3 3 0 01-3 3 3 3 0 01-3-3 3 3 0 013-3zm-.084 1.004A2 2 0 006 8a2 2 0 002 2 2 2 0 002-2 2 2 0 00-1.9-1.994A1 1 0 019 7a1 1 0 01-1 1 1 1 0 01-1-1 1 1 0 01.916-.996z" color="#000" font-weight="400" font-family="sans-serif" overflow="visible" fill="gray"/>
</svg>
